static/images/logo-mobile.svg

<svg width="539" height="435" viewBox="0 0 539 435" fill="none" xmlns="http://www.w3.org/2000/svg">
<path d="M451.492 223.644C451.362 252.384 438.227 286.833 401.044 326.639" stroke="#266DD3" stroke-width="14" stroke-miterlimit="10" stroke-linecap="round"/>
<path d="M451.259 229.733C451.718 218.496 494.163 218.733 483.233 253.342C473.782 283.266 449.341 282.575 440.339 272.692" stroke="#266DD3" stroke-width="14" stroke-miterlimit="10" stroke-linecap="round"/>
<path d="M150.233 285.698C103.296 291.936 76.5342 324.047 71.9459 348.743C71.4207 351.568 72.3835 354.444 74.4335 356.456C82.1654 364.039 103.468 380.554 126.975 360.775C137.41 356.506 172.033 344.124 194.492 339.748C198.623 338.943 202.91 339.84 206.394 342.2C244.872 368.278 272.396 370.961 307.42 373.226C312.394 373.548 317.095 375.599 320.703 379.039C336.308 393.92 383.88 434.298 430.726 423.507C432.638 423.066 434.193 421.663 434.934 419.846L448.457 386.714C448.457 386.714 393.322 338.262 386.704 295.957" stroke="#266DD3" stroke-width="14" stroke-miterlimit="10" stroke-linecap="round"/>
<path d="M72.7426 278.657C72.7426 278.657 67.4963 281.424 61.8555 285.698C55.3543 290.623 48.3289 297.547 48.2003 304.544C47.9577 317.614 71.145 333.969 75.5255 335.472" stroke="#266DD3" stroke-width="14" stroke-miterlimit="10" stroke-linecap="round"/>
<path d="M61.8553 285.698C61.8553 285.698 90.3617 308.968 89.3293 315.122C89.3293 315.122 127.837 352.771 126.975 360.775" stroke="#266DD3" stroke-width="14" stroke-miterlimit="10" stroke-linecap="round"/>
<path d="M405.818 423.818C405.818 423.818 419.583 368.691 431.448 369.983C431.448 369.983 449.711 337.134 457.798 337.134" stroke="#266DD3" stroke-width="14" stroke-miterlimit="10" stroke-linecap="round"/>
<path d="M426.268 299.095C426.268 299.095 464.391 341.273 464.63 349.221C464.739 352.829 460.219 383.038 448.457 386.713" stroke="#266DD3" stroke-width="14" stroke-miterlimit="10" stroke-linecap="round"/>
<path d="M153.645 58.636C140.926 62.2183 131.525 63.953 124.105 64.6184C113.994 65.5253 107.561 64.4486 101.421 63.3614C98.2128 62.793 96.7428 59.0051 98.72 56.4162C153.202 -14.9657 174.383 48.9142 174.383 48.9142L176.202 55.0991" stroke="#266DD3" stroke-width="14" stroke-miterlimit="10" stroke-linecap="round"/>
<path d="M125.397 97.3347C125.397 97.3347 128.751 64.2854 122.224 64.6186" stroke="#266DD3" stroke-width="14" stroke-miterlimit="10" stroke-linecap="round"/>
<path d="M38.5668 141.842C38.5668 141.842 62.2676 153.002 62.2676 192.379" stroke="#266DD3" stroke-width="14" stroke-miterlimit="10" stroke-linecap="round" stroke-linejoin="round"/>
<path d="M29.3278 181.943C29.616 181.943 29.9582 181.799 30.3397 181.396C30.7225 180.991 31.0979 180.369 31.4273 179.546C32.0845 177.902 32.506 175.586 32.506 172.994C32.506 170.402 32.0845 168.086 31.4273 166.442C31.0979 165.619 30.7225 164.997 30.3397 164.592C29.9582 164.189 29.616 164.045 29.3278 164.045C29.0389 164.045 28.6963 164.189 28.3146 164.592C27.9315 164.997 27.5559 165.619 27.2264 166.442C26.569 168.086 26.1475 170.402 26.1475 172.994C26.1475 175.586 26.569 177.902 27.2264 179.545C27.5559 180.369 27.9315 180.991 28.3146 181.396C28.6963 181.799 29.0389 181.943 29.3278 181.943Z" fill="#266DD3" stroke="#266DD3"/>
<path d="M41.5354 189.586C42.0356 189.586 42.5793 189.336 43.1438 188.739C43.7096 188.141 44.2499 187.239 44.7175 186.07C45.6514 183.735 46.2438 180.464 46.2438 176.816C46.2438 173.168 45.6514 169.897 44.7175 167.562C44.2499 166.393 43.7096 165.491 43.1437 164.893C42.5792 164.296 42.0355 164.045 41.5354 164.045C41.036 164.045 40.4927 164.296 39.9283 164.893C39.3626 165.491 38.8223 166.393 38.3547 167.562C37.4208 169.897 36.8282 173.168 36.8282 176.816C36.8282 180.464 37.4208 183.735 38.3547 186.07C38.8223 187.239 39.3625 188.141 39.9283 188.739C40.4926 189.336 41.036 189.586 41.5354 189.586Z" fill="#266DD3" stroke="#266DD3"/>
<path d="M45.1453 248.337C45.1453 248.337 91.04 266.329 114.711 233.866" stroke="#266DD3" stroke-width="14" stroke-miterlimit="10" stroke-linecap="round"/>
<path d="M170.76 73.3707C170.76 73.3707 112.11 90.5861 109.738 122.955C108.024 146.366 76.3198 164.021 43.7693 142.64C23.192 129.124 -21.3539 221.535 45.1455 248.337C46.5923 248.92 47.244 250.583 46.5069 251.957C46.5069 251.957 45.7655 260.127 64.1378 272.855C64.1378 272.855 79.2536 284.471 106.637 300.705" stroke="#266DD3" stroke-width="14" stroke-miterlimit="10" stroke-linecap="round"/>
<path d="M301.606 108.298C295.416 102.67 292.014 99.0431 292.014 99.0431C285.852 93.2811 282.075 89.027 278.511 81.8498C261.727 48.0549 239.222 -16.211 177.717 53.2559C174.602 56.7728 172.204 60.9594 171.235 65.5561C163.834 100.672 245.418 69.2101 245.418 69.2101" stroke="#266DD3" stroke-width="14" stroke-miterlimit="10" stroke-linecap="round"/>
<path d="M451.492 223.644C451.453 219.457 450.913 214.953 450.06 210.395" stroke="#266DD3" stroke-width="14" stroke-miterlimit="10" stroke-linecap="round"/>
<path d="M234.479 205.282C234.479 205.282 347.604 7.97631 460.062 10.0158C472.531 10.2415 480.32 23.6742 474.316 34.6035C455.921 68.0915 417.957 119.67 386.103 122.796" stroke="#266DD3" stroke-width="14" stroke-miterlimit="10" stroke-linecap="round"/>
<path d="M458.704 61.0864C468.919 60.2881 477.371 60.711 483.818 61.4988C493.842 62.7241 501.612 71.2975 501.473 81.3948C501.243 98.0481 491.543 113.151 478.253 126.069C448.589 154.905 401.044 172.854 401.044 172.854" stroke="#266DD3" stroke-width="14" stroke-miterlimit="10" stroke-linecap="round"/>
<path d="M472.369 131.457C492.023 123.464 506.18 121.873 515.423 122.28C523.55 122.638 529.679 129.941 528.876 138.037C520.189 225.759 349.677 223.231 349.677 223.231" stroke="#266DD3" stroke-width="14" stroke-miterlimit="10" stroke-linecap="round"/>
<path d="M126.989 149.526C126.989 149.526 156.391 109.557 150.689 161.964" stroke="#266DD3" stroke-width="14" stroke-miterlimit="10" stroke-linecap="round"/>
</svg>

<svg width="539" height="435" fill="none" xmlns="http://www.w3.org/2000/svg"><path d="M451.492 223.644c-.13 28.74-13.265 63.189-50.448 102.995M451.259 229.733c.459-11.237 42.904-11 31.974 23.609-9.451 29.924-33.892 29.233-42.894 19.35" stroke="#266DD3" stroke-width="14" stroke-miterlimit="10" stroke-linecap="round"/><path d="M150.233 285.698c-46.937 6.238-73.699 38.349-78.287 63.045-.525 2.825.438 5.701 2.487 7.713 7.732 7.583 29.035 24.098 52.542 4.319 10.435-4.269 45.058-16.651 67.517-21.027a15.843 15.843 0 0111.902 2.452c38.478 26.078 66.002 28.761 101.026 31.026a21.224 21.224 0 0113.283 5.813c15.605 14.881 63.177 55.259 110.023 44.468 1.912-.441 3.467-1.844 4.208-3.661l13.523-33.132s-55.135-48.452-61.753-90.757" stroke="#266DD3" stroke-width="14" stroke-miterlimit="10" stroke-linecap="round"/><path d="M72.743 278.657s-5.247 2.767-10.887 7.041c-6.502 4.925-13.527 11.849-13.656 18.846-.242 13.07 22.945 29.425 27.325 30.928" stroke="#266DD3" stroke-width="14" stroke-miterlimit="10" stroke-linecap="round"/><path d="M61.855 285.698s28.507 23.27 27.474 29.424c0 0 38.508 37.649 37.646 45.653M405.818 423.818s13.765-55.127 25.63-53.835c0 0 18.263-32.849 26.35-32.849" stroke="#266DD3" stroke-width="14" stroke-miterlimit="10" stroke-linecap="round"/><path d="M426.268 299.095s38.123 42.178 38.362 50.126c.109 3.608-4.411 33.817-16.173 37.492M153.645 58.636c-12.719 3.582-22.12 5.317-29.54 5.982-10.111.907-16.544-.17-22.684-1.257-3.208-.568-4.678-4.356-2.701-6.945 54.482-71.382 75.663-7.502 75.663-7.502l1.819 6.185M125.397 97.335s3.354-33.05-3.173-32.716" stroke="#266DD3" stroke-width="14" stroke-miterlimit="10" stroke-linecap="round"/><path d="M38.567 141.842s23.7 11.16 23.7 50.537" stroke="#266DD3" stroke-width="14" stroke-miterlimit="10" stroke-linecap="round" stroke-linejoin="round"/><path d="M29.328 181.943c.288 0 .63-.144 1.012-.547.383-.405.758-1.027 1.087-1.85.657-1.644 1.079-3.96 1.079-6.552 0-2.592-.422-4.908-1.079-6.552-.33-.823-.704-1.445-1.087-1.85-.382-.403-.724-.547-1.012-.547-.29 0-.632.144-1.013.547-.384.405-.76 1.027-1.089 1.85-.657 1.644-1.078 3.96-1.078 6.552 0 2.592.421 4.908 1.078 6.551.33.824.706 1.446 1.089 1.851.381.403.724.547 1.013.547zM41.535 189.586c.5 0 1.044-.25 1.609-.847.566-.598 1.106-1.5 1.574-2.669.933-2.335 1.526-5.606 1.526-9.254 0-3.648-.593-6.919-1.526-9.254-.468-1.169-1.008-2.071-1.574-2.669-.565-.597-1.108-.848-1.609-.848-.499 0-1.042.251-1.607.848-.565.598-1.106 1.5-1.573 2.669-.934 2.335-1.527 5.606-1.527 9.254 0 3.648.593 6.919 1.527 9.254.467 1.169 1.008 2.071 1.573 2.669.565.597 1.108.847 1.607.847z" fill="#266DD3" stroke="#266DD3"/><path d="M45.145 248.337s45.895 17.992 69.566-14.471M170.76 73.37s-58.65 17.216-61.022 49.585c-1.714 23.411-33.418 41.066-65.969 19.685-20.577-13.516-65.123 78.895 1.377 105.697 1.446.583 2.098 2.246 1.36 3.62 0 0-.74 8.17 17.632 20.898 0 0 15.116 11.616 42.499 27.85" stroke="#266DD3" stroke-width="14" stroke-miterlimit="10" stroke-linecap="round"/><path d="M301.606 108.298c-6.19-5.628-9.592-9.255-9.592-9.255-6.162-5.762-9.939-10.016-13.503-17.193-16.784-33.795-39.289-98.061-100.794-28.594-3.115 3.517-5.513 7.703-6.482 12.3-7.401 35.116 74.183 3.654 74.183 3.654M451.492 223.644c-.039-4.187-.579-8.691-1.432-13.249" stroke="#266DD3" stroke-width="14" stroke-miterlimit="10" stroke-linecap="round"/><path d="M234.479 205.282S347.604 7.976 460.062 10.016c12.469.226 20.258 13.658 14.254 24.587-18.395 33.488-56.359 85.067-88.213 88.193M458.704 61.086c10.215-.798 18.667-.375 25.114.413 10.024 1.225 17.794 9.798 17.655 19.896-.23 16.653-9.93 31.756-23.22 44.674-29.664 28.836-77.209 46.785-77.209 46.785" stroke="#266DD3" stroke-width="14" stroke-miterlimit="10" stroke-linecap="round"/><path d="M472.369 131.457c19.654-7.993 33.811-9.584 43.054-9.177 8.127.358 14.256 7.661 13.453 15.757-8.687 87.722-179.199 85.194-179.199 85.194M126.989 149.526s29.402-39.969 23.7 12.438" stroke="#266DD3" stroke-width="14" stroke-miterlimit="10" stroke-linecap="round"/></svg>
